X:11
T:Crehan's
R:reel
Z:Transcribed by Dave Marshall
M:C|
K:D
|: d2 fd BAFE | DB, (3B,B,B, A,B,DE | FABc d3c | Beef edBc |
d2 fd BAFE | DB, (3B,B,B, A,B,DE | FAdf ecdB | AFEG FDDA :|
|: d2fd bdad | gdfd edBd | A~d3 defg | afdf e2fa |
b~f3 afec | d2fd edBd | ABdf ecdB | AFEG FDD2 :||

